X:1
T: Lord Francis Russell
C:William Marshall
R:Reel
Q: 232
K:F
M:4/4
L:1/8
|:A|F2 FA cf cA|cf cA BG GA|F2 FA cf ag|fd cB AF FA|
F2 FA cf cA|cf cA BG GA|F2 FA cf ag|fd cB AF Fa|
ba gf eg fe|fd cA BG Ga|ba gf eg fe|fd cB AF Fa|
ba gf eg fe|fd cA BG GA|F2 FA cf ag|fd cB AF F:|
